img/icons/tooltip/File_Document.svg

<svg width="20" height="20" viewBox="0 0 20 20" fill="none" xmlns="http://www.w3.org/2000/svg">
<path d="M7.49984 14.1667H12.4998M7.49984 11.6667H12.4998M15.8328 7.5H12.1662C11.6995 7.5 11.4663 7.49999 11.2881 7.40916C11.1313 7.32926 11.0039 7.20181 10.924 7.04501C10.8332 6.86675 10.8332 6.63338 10.8332 6.16667V2.5M15.8332 14.8333V8.04499C15.8332 7.65873 15.8333 7.4656 15.7917 7.28277C15.7547 7.12062 15.6939 6.9649 15.6108 6.82082C15.5172 6.65835 15.3859 6.51664 15.1234 6.23322L12.4583 3.3549C12.1667 3.0399 12.0207 2.8824 11.8472 2.76952C11.6934 2.66947 11.5237 2.59553 11.3458 2.55064C11.1451 2.5 10.9308 2.5 10.5016 2.5H6.83333C5.89991 2.5 5.43285 2.5 5.07633 2.68166C4.76273 2.84144 4.50795 3.09643 4.34816 3.41003C4.1665 3.76655 4.1665 4.23326 4.1665 5.16668V14.8333C4.1665 15.7668 4.1665 16.2335 4.34816 16.59C4.50795 16.9036 4.76273 17.1585 5.07633 17.3183C5.43285 17.5 5.89991 17.5 6.83333 17.5H13.1667C14.1001 17.5 14.5665 17.5 14.923 17.3183C15.2366 17.1585 15.4919 16.9036 15.6517 16.59C15.8333 16.2335 15.8332 15.7668 15.8332 14.8333Z" stroke="#8C8D92" stroke-width="2" stroke-linecap="round" stroke-linejoin="round"/>
</svg>

<svg width="20" height="20" fill="none" xmlns="http://www.w3.org/2000/svg"><path d="M7.5 14.167h5m-5-2.5h5M15.833 7.5h-3.667c-.466 0-.7 0-.878-.09a.833.833 0 0 1-.364-.365c-.09-.178-.09-.412-.09-.878V2.5m5 12.333V8.045c0-.386 0-.58-.042-.762a1.666 1.666 0 0 0-.181-.462c-.094-.163-.225-.304-.488-.588l-2.665-2.878c-.291-.315-.437-.473-.61-.585a1.669 1.669 0 0 0-.502-.22c-.2-.05-.415-.05-.844-.05H6.833c-.933 0-1.4 0-1.757.182-.313.16-.568.414-.728.728-.181.357-.181.823-.181 1.757v9.666c0 .934 0 1.4.181 1.757.16.314.415.569.728.728.357.182.824.182 1.757.182h6.334c.933 0 1.4 0 1.756-.182.314-.16.569-.414.729-.728.181-.357.181-.823.181-1.757Z" stroke="#8C8D92" stroke-width="2" stroke-linecap="round" stroke-linejoin="round"/></svg>
